!!!OTL: Huang hua cao
!!!ARE: Asia, China,ÿSichuan, Xiushan
!! II, 243
!!!SCT: C1503
!!!YEM: Copyright 1995, estate of Helmut Schaffrath.
**kern
*ICvox
*Ivox
*M2/4
*k[]
*C:
{8a
4dd
8ee
=1
4dd
8cc
8a
=2
8g
8g
8f
8g
=3
2a}
=4
{8dd
4dd
8ee
=5
4dd
8cc
8a
=6
8g
8g
8f
8g
=7
2a}
=8
{8g
8cc
8cc
8g
=9
8cc
4cc
8g
=10
4a
8g
8f
=11
4d
8g
8f
=12
2d}
=13
{8g
4cc
8a
=14
8g
8a
8g
8f
=15
8d
8d
8g
8f
=16
8d
8d
4r}
==
!!!AGN: Xiaodiao
!!!AMT: simple duple
!!!AIN: vox
!!!EED: Helmut Schaffrath
!!!EEV: 1.0
*-
